app/images/nav_icons/cart_cart.svg

<svg width="22" height="21" viewBox="0 0 22 21" fill="none" xmlns="http://www.w3.org/2000/svg">
<path fill-rule="evenodd" clip-rule="evenodd" d="M0.813729 2.62872H3.14683L6.47019 14.6665C6.56519 15.0201 6.89077 15.2643 7.25698 15.2643H17.4713C17.7969 15.2643 18.0817 15.0747 18.2173 14.7757L21.934 6.21548C22.0426 5.95698 22.0154 5.67266 21.8662 5.44028C21.7169 5.21054 21.4592 5.07394 21.188 5.07394H9.90217C9.45447 5.07394 9.08826 5.44028 9.08826 5.889C9.08826 6.33836 9.45447 6.70538 9.90217 6.70538H19.9401L16.9287 13.6335H7.86741L4.54405 1.59632C4.44916 1.24304 4.12358 0.997925 3.75737 0.997925H0.813729C0.366139 0.997925 -0.000183105 1.36526 -0.000183105 1.81398C-0.000183105 2.26172 0.366139 2.62872 0.813729 2.62872ZM6.48381 20.9985C7.5012 20.9985 8.3286 20.1694 8.3286 19.1504C8.3286 18.1311 7.5012 17.3029 6.48381 17.3029C5.46644 17.3029 4.63902 18.1311 4.63902 19.1504C4.63902 20.1694 5.46644 20.9985 6.48381 20.9985ZM18.1495 20.9985H18.0139C17.0507 20.9985 16.2504 20.2377 16.1827 19.2729C16.1148 18.267 16.8745 17.3709 17.8919 17.3029C18.9091 17.2349 19.7909 18.0088 19.8586 19.0151C19.8859 19.5171 19.7367 19.9936 19.4111 20.3596C19.0855 20.74 18.6379 20.9577 18.1495 20.9985Z" fill="white"/>
</svg>

<svg width="22" height="21" fill="none" xmlns="http://www.w3.org/2000/svg"><path fill-rule="evenodd" clip-rule="evenodd" d="M.814 2.629h2.333L6.47 14.666c.095.354.42.598.787.598h10.214c.326 0 .61-.19.746-.488l3.717-8.56a.828.828 0 00-.068-.776.81.81 0 00-.678-.366H9.902a.817.817 0 000 1.631H19.94l-3.011 6.928H7.867L4.544 1.596a.815.815 0 00-.787-.598H.814A.817.817 0 000 1.814c0 .448.366.815.814.815zm5.67 18.37a1.848 1.848 0 000-3.696 1.848 1.848 0 000 3.695zm11.665 0h-.135a1.85 1.85 0 01-1.831-1.726 1.85 1.85 0 011.709-1.97 1.85 1.85 0 011.52 3.057c-.326.38-.774.598-1.262.639z" fill="#fff"/></svg>
